X:1
T:[ID 1-137]
T:[ID 1-137]
T:Bezeichnung standardisiert: Drum sag ich noch einmal; Tantz. Drum sag ich noch einmal
T:Urheber unbekannt Datum in der hier transkribierten schriftlichen Quelle: 1792
C:Urheber unbekannt
C:Datum in der hier transkribierten schriftlichen Quelle: 1792
L:1/8
M:2/4
K:D
V:1 treble 
V:1
 A | dAFD | d2 f2 | edcB | cA A/B/c/A/ | dAFD | d2 f2 | fe/f/ gf | e3 :: e/f/ | eccc | dBBB | %12
 cA A/B/c/A/ | B^G E2 | ABcd | efge | fe/d/ e/g/e/c/ | d3 :| %18

